X: 4219
T: The ELECTRIC CAR
R: Jig
%R: jig
B: James Kerr "Merry Melodies" v.4 p.24 #219
Z: 2016 John Chambers <jc:trillian.mit.edu>
M: 6/8
L: 1/8
K: G
|:\
g2G GAG | BcB def | g2g bag | faf def |\
g2G GAG | BcB def | gfg bag | fag fed :|
|:\
gbg dBd | ege dBG | gag dBd | eag fed |\
gbg dBd | ege dBG | gfg bag | fag fed :|

%%sep 1 1 500
%%sep 1 1 500

